X:1
T:01Preludio
T:Johann Sebastian Bach - Partita No. 3, BWV 1006 Prelude
%%score ( 1 2 )
L:1/8
Q:1/4=94
M:3/4
K:E
V:1 treble nm="Piano" snm="Pno."
V:2 treble 
V:1
 z2 z2 z2 |[M:3/4] z!f! e'/ d'/ e' b g b | e/ f/ e/ d/ e B G B | %3
 E/ B/ F/ B/ G/ B/ A/ B/ G/ B/ F/ B/ | E/ e/ d/ c/ B/ e/ d/ c/ B/ A/ G/ F/ | %5
!p! E/ B/ F/ B/ G/ B/ A/ B/ G/ B/ F/ B/ | E/ e/ d/ c/ B/ e/ d/ c/ B/ A/ G/ F/ | %7
!f! E/ F/ G/ A/ B/ c/ d/ e/ f/ g/ a/ f/ | g/ b/ e/ f/ g/ a/ b/ c'/ d'/ e'/ c'/ d'/ | %9
 e'/ b/ a/ b/ g/ b/ a/ b/ g/ b/ f/ b/ | e/ e'/ d'/ c'/ b/ e/ c'/ e/ b/ e/ a/ e/ | %11
!p! g/ b/ f/ b/ g/ b/ a/ b/ g/ b/ f/ b/ | e/ e'/ d'/ c'/ b/ e/ c'/ e/ b/ e/ a/ e/ | %13
!f! g/ e/ e/ e/ d/ e/ e/ e/ f/ e/ d/ e/ | e/ e/ g/ e/ f/ e/ g/ e/ a/ e/ f/ e/ | %15
!p! g/ e/ e/ e/ d/ e/ e/ e/ f/ e/ d/ e/ | e/ e/ g/ e/ f/ e/ g/ e/ a/ e/ f/ e/ | %17
!f! g/ e/ g/ e/ g/ e/ g/ e/ g/ e/ g/ e/ | g/ e/ g/ d/ g/ e/ g/ d/ g/ e/ g/ d/ | %19
 g/ e/ g/ =d/ g/ e/ g/ d/ g/ e/ g/ d/ | a/ e/ a/ c/ a/ e/ a/ c/ a/ e/ a/ c/ | %21
 a/ e/ a/ B/ a/ e/ a/ B/ a/ e/ a/ B/ | g/ e/ g/ B/ g/ e/ g/ B/ g/ e/ g/ B/ | %23
 g/ e/ g/ A/ g/ e/ g/ A/ g/ e/ g/ A/ | f/ e/ f/ A/ f/ e/ f/ A/ f/ e/ f/ A/ | %25
 f/ e/ f/ G/ f/ e/ f/ G/ f/ e/ f/ G/ | e/ e/ e/ G/ e/ e/ e/ G/ e/ e/ e/ G/ | %27
 e/ e/ e/ F/ e/ e/ e/ F/ e/ e/ e/ F/ | d/ e/ d/ F/ d/ e/ d/ F/ d/ e/ d/ F/ | %29
!p! E/ F/ E/ F/ G/ B/ E/ F/ G/ B/ E/ F/ | G/ A/ G/ A/ B/ e/ G/ A/ B/ e/ G/ A/ | %31
 B/ c/ B/ c/ =d/ g/ B/ c/ d/ g/ B/ c/ | =d/ b/ g/ e/ d/ B/ G/ E/ =D/ C/ D/ B,/ | %33
 C/ D/ C/ D/ ^E/ G/ C/ D/ E/ G/ C/ D/ | ^E/ F/ E/ F/ G/ c/ E/ F/ G/ c/ E/ F/ | %35
 G/ A/ G/ A/ B/ ^e/ G/ A/ B/ e/ G/ A/ | B/ g/ ^e/ c/ b/ g/ a/ f/ e/ g/ c/ B/ | %37
 A/ c/ A/ F/ f/ d/ e/ c/ ^B/ d/ G/ F/ | E/ G/ E/ C/ E/ G/ c/ G/ e/ c/ g/ c/ | %39
 ^B/ d/ B/ G/ g/ =g/ ^g/ =g/ ^g/ d/ e/ c/ | ^B/ d/ B/ G/ f/ ^e/ f/ e/ f/ d/ =e/ c/ | %41
 ^B/ d/ B/ G/ A/ G/ A/ G/ A/ D/ E/ C/ | ^B,/ F/ C/ F/ D/ F/ C/ F/ B,/ F/ D/ F/ | %43
 G,/ F/ d/ F/ ^B/ F/ d/ F/ B/ F/ d/ F/ | G,/ E/ c/ E/ e/ E/ c/ E/ e/ E/ c/ E/ | %45
 G,/ F/ d/ F/ ^B/ F/ d/ F/ B/ F/ d/ F/ | G,/ E/ c/ E/ e/ E/ c/ E/ e/ E/ c/ E/ | %47
 G,/ =G/ c/ G/ e/ G/ c/ G/ e/ G/ c/ G/ | G,/ =G/ c/ G/ e/ G/ c/ G/ e/ G/ c/ G/ | %49
 G,/ G/ c/ G/ d/ G/ c/ G/ d/ G/ c/ G/ | G,/ F/ ^B/ F/ d/ F/ B/ F/ d/ F/ B/ F/ | %51
 C/ c/ B/ A/ G/ c/ G/ F/ E/ G/ E/ D/ | C/ c/ G/ F/ E/ G/ E/ D/ C/ E/ C/ B,/ | %53
 ^A,/ F/ c/ F/ e/ F/ c/ F/ e/ F/ c/ F/ | ^A,/ F/ e/ F/ c/ F/ e/ F/ c/ F/ e/ F/ | %55
 B,/ b/ ^a/ g/ f/ b/ f/ e/ d/ f/ d/ c/ | B/ b/ f/ e/ d/ f/ d/ c/ B/ d/ B/ A/ | %57
 G/ =d/ e/ d/ g/ d/ b/ d/ g/ d/ e/ d/ | G/ =d/ e/ d/ G/ d/ F/ d/ G/ d/ E/ d/ | %59
 c/ e/ a/ g/ a/ e/ =d/ e/ c/ e/ B/ e/ | A/ a/ g/ f/ e/ A/ f/ A/ e/ A/ =d/ A/ | %61
 c/ e/ B/ e/ c/ e/ =d/ e/ c/ e/ B/ e/ | A/ a/ g/ f/ e/ A/ f/ A/ e/ A/ =d/ A/ | %63
 c/ A/ A/ A/ G/ A/ A/ A/ B/ A/ G/ A/ | A/ A/ c/ A/ B/ A/ c/ A/ =d/ A/ B/ A/ | %65
 c/ A/ A/ A/ G/ A/ A/ A/ B/ A/ G/ A/ | A/ A/ c/ A/ B/ A/ c/ A/ =d/ A/ B/ A/ | %67
 c/ A/ c/ A/ c/ A/ c/ A/ c/ A/ c/ A/ | c/ A/ c/ G/ c/ A/ c/ G/ c/ A/ c/ G/ | %69
 c/ A/ c/ =G/ c/ A/ c/ G/ c/ A/ c/ G/ | =d/ A/ d/ F/ d/ A/ d/ F/ d/ A/ d/ F/ | %71
 =d/ A/ d/ E/ d/ A/ d/ E/ d/ A/ d/ E/ | c/ A/ c/ E/ c/ A/ c/ E/ c/ A/ c/ E/ | %73
 c/ A/ c/ =D/ c/ A/ c/ D/ c/ A/ c/ D/ | B/ A/ B/ =D/ B/ A/ B/ D/ B/ A/ B/ D/ | %75
 B/ A/ B/ C/ B/ A/ B/ C/ B/ A/ B/ C/ | A/ A/ A/ C/ A/ A/ A/ C/ A/ A/ A/ C/ | %77
 A/ A/ A/ B,/ A/ A/ A/ B,/ A/ A/ A/ B,/ | G/ A/ G/ B,/ G/ A/ G/ B,/ G/ A/ G/ B,/ | %79
 A,/ B,/ A,/ B,/ C/ E/ A,/ B,/ C/ E/ A,/ B,/ | C/ =D/ C/ D/ E/ A/ C/ D/ E/ A/ C/ D/ | %81
 E/ F/ E/ F/ =G/ c/ E/ F/ G/ c/ E/ F/ | =G/ e/ c/ =d/ e/ c/ ^A/ B/ c/ A/ F/ E/ | %83
 =D/ C/ B,/ C/ D/ F/ B,/ C/ D/ F/ B,/ C/ | =D/ E/ D/ E/ F/ B/ D/ E/ F/ B/ D/ E/ | %85
 F/ G/ F/ G/ A/ d/ F/ G/ A/ d/ F/ G/ | A/ f/ d/ e/ f/ d/ ^B/ c/ d/ B/ G/ F/ | %87
 ^E/ b/ g/ a/ b/ g/ ^e/ f/ g/ e/ c/ B/ | A/ c'/ a/ b/ c'/ a/ f/ g/ a/ f/ =d/ c/ | %89
 B/ =d'/ b/ c'/ d'/ b/ g/ a/ b/ g/ ^e/ g/ | c/ d/ c/ d/ ^e/ g/ c/ d/ e/ g/ c/ d/ | %91
 ^e/ f/ e/ f/ g/ b/ e/ f/ g/ b/ e/ f/ | g/ a/ g/ a/ b/ =d'/ g/ a/ b/ d'/ g/ a/ | %93
 b/ =d'/ b/ g/ ^e/ b/ g/ e/ c/ b/ a/ g/ | f/ g/ a/ f/ B/ a/ g/ f/ c/ g/ f/ ^e/ | %95
 =d/ e/ f/ d/ G/ f/ e/ d/ ^A/ e/ d/ c/ | B/ c/ =d/ B/ ^E/ d/ c/ B/ F/ c/ B/ A/ | %97
 G/ A/ B/ A/ G/ B/ A/ B/ G/ B/ F/ B/ | ^E/ F/ G/ A/ B/ E/ =d/ E/ c/ E/ B/ E/ | %99
 F/ A/ F/ C/ A,/ C/ F/ C/ A/ C/ F/ C/ | ^E/ G/ E/ C/ E/ G/ c/ G/ ^e/ c/ g/ B/ | %101
 A/ c/ A/ F/ A/ c/ f/ c/ a/ f/ c'/ f/ | ^e/ g/ e/ c/ c'/ ^b/ c'/ b/ c'/ g/ a/ f/ | %103
 ^e/ g/ e/ c/ b/ ^a/ b/ a/ b/ g/ =a/ f/ | ^e/ g/ e/ c/ =d/ c/ d/ c/ d/ G/ A/ F/ | %105
 ^E/ G/ c/ b/ b/ g/ a/ f/ ^e/ g/ c/ B/ | A/ c/ f/ c'/ c'/ a/ b/ g/ f/ a/ =d/ c/ | %107
 B/ =d/ =G/ F/ ^E/ ^G/ C/ B,/ A,/ C/ F/ G/ | A/ F/ B/ F/ c/ F/ =d/ F/ C/ F/ G/ ^E/ | %109
 F/ A/ G/ A/ A/ A/ G/ A/ F/ A/ E/ A/ | D/ A/ E/ A/ F/ A/ G/ A/ A/ A/ F/ A/ | %111
 G/ A/ G/ F/ E/ e/ d/ e/ c/ e/ B/ e/ | ^A/ e/ B/ e/ c/ e/ d/ e/ e/ e/ c/ e/ | %113
 d/ e/ d/ c/ B/ c/ d/ e/ f/ g/ a/ f/ | b/ B/ A/ B/ G/ B/ F/ B/ E/ B/ =D/ B/ | %115
 C/ E/ F/ G/ A/ B/ c/ =d/ e/ f/ g/ e/ | a/ A/ G/ A/ F/ A/ E/ A/ D/ A/ C/ A/ | %117
 B,/ D/ E/ F/ G/ A/ B/ c/ d/ e/ f/ d/ | g/ E/ =D/ E/ C/ E/ B,/ E/ A,/ E/ G,/ E/ | %119
 A,/ E/ c/ B/ c/ e/ a/ g/ a/ f/ c/ e/ | B,/ F/ d/ c/ d/ f/ a/ g/ a/ f/ d/ f/ | %121
 B,/ G/ B/ A/ B/ e/ g/ f/ g/ e/ B/ e/ | B,/ ^A/ c/ B/ c/ e/ ^a/ g/ a/ e/ c/ e/ | %123
 d/ b/ ^a/ g/ f/ b/ f/ e/ d/ f/ d/ c/ | B/ b/ a/ g/ f/ a/ f/ e/ d/ f/ d/ c/ | %125
 B/ a/ g/ f/ e/ g/ e/ d/ c/ e/ c/ B/ | A/ g/ f/ e/ d/ f/ d/ c/ B/ d/ B/ A/ | %127
 G/ e/ c/ B/ A/ c/ A/ G/ F/ A/ F/ E/ | D/ F/ A/ c/ B/ d/ f/ a/ a/ g/ a/ f/ | %129
 g/ e/ g/ b/ e'/ b/ g/ e/ B/ f/ e'/ d'/ | e'/ b/ g/ e/ =d/ e/ c/ e/ d/ e/ B/ e/ | %131
 c/ e/ a/ e/ c/ e/ B/ e/ c/ e/ A/ e/ | B/ e/ g/ e/ B/ e/ A/ e/ B/ e/ G/ e/ | %133
 A/ e/ f/ e/ d/ e/ e/ e/ f/ e/ g/ e/ | [da]3 b g2 | z/ a/ g/ a/ f/ z/ z z2 | %136
 e/ e'/ d'/ c'/ b/ e'/ a/ e'/ g/ e'/ f/ e'/ | e/ e/ d/ c/ B/ e/ A/ e/ G/ e/ F/ e/ | %138
 E/ G/ B/ d/ e/ g/ b/ d'/ e' z |] z6 | z6 | z6 | z6 |] %143
V:2
 x6 |[M:3/4] x6 | x6 | x6 | x6 | x6 | x6 | x6 | x6 | x6 | x6 | x6 | x6 | x6 | x6 | x6 | x6 | x6 | %18
 x6 | x6 | x6 | x6 | x6 | x6 | x6 | x6 | x6 | x6 | x6 | x6 | x6 | x6 | x6 | x6 | x6 | x6 | x6 | %37
 x6 | x6 | x6 | x6 | x6 | x6 | x6 | x6 | x6 | x6 | x6 | x6 | x6 | x6 | x6 | x6 | x6 | x6 | x6 | %56
 x6 | x6 | x6 | x6 | x6 | x6 | x6 | x6 | x6 | x6 | x6 | x6 | x6 | x6 | x6 | x6 | x6 | x6 | x6 | %75
 x6 | x6 | x6 | x6 | x6 | x6 | x6 | x6 | x6 | x6 | x6 | x6 | x6 | x6 | x6 | x6 | x6 | x6 | x6 | %94
 x6 | x6 | x6 | x6 | x6 | x6 | x6 | x6 | x6 | x6 | x6 | x6 | x6 | x6 | x6 | x6 | x6 | x6 | x6 | %113
 x6 | x6 | x6 | x6 | x6 | x6 | x6 | x6 | x6 | x6 | x6 | x6 | x6 | x6 | x6 | x6 | x6 | x6 | x6 | %132
 x6 | x6 | [B,F]3 z [EB]2 | A, z [Bf]2- !tenuto![B-f]/ B/- !tenuto![Be-]/ e/ | x6 | x6 | x6 |] x6 | %140
 x6 | x6 | x6 |] %143

